static/img/olake/olake-product-6.svg

<svg width="72" height="72" viewBox="0 0 72 72" fill="none" xmlns="http://www.w3.org/2000/svg">
<circle cx="36" cy="36" r="36" fill="#333333"/>
<path fill-rule="evenodd" clip-rule="evenodd" d="M22.6667 24.3337C22.6667 24.3357 22.667 24.3434 22.6718 24.3591C22.6775 24.3777 22.6914 24.4144 22.7252 24.4694C22.7959 24.5846 22.9402 24.7579 23.2104 24.9709C23.7607 25.4045 24.6603 25.868 25.9205 26.2881C28.4234 27.1224 31.9872 27.667 36 27.667C40.0129 27.667 43.5767 27.1224 46.0796 26.2881C47.3398 25.868 48.2393 25.4045 48.7896 24.9709C49.0599 24.7579 49.2042 24.5846 49.2749 24.4694C49.3087 24.4144 49.3226 24.3777 49.3283 24.3591C49.3331 24.3432 49.3334 24.336 49.3334 24.334C49.3334 24.3339 49.3334 24.3341 49.3334 24.334C49.3334 24.3328 49.3335 24.3254 49.3283 24.3082C49.3226 24.2896 49.3087 24.2529 49.2749 24.1979C49.2042 24.0827 49.0599 23.9094 48.7896 23.6965C48.2393 23.2628 47.3398 22.7993 46.0796 22.3793C43.5767 21.545 40.0129 21.0003 36 21.0003C31.9872 21.0003 28.4234 21.545 25.9205 22.3793C24.6603 22.7993 23.7607 23.2628 23.2104 23.6965C22.9402 23.9094 22.7959 24.0827 22.7252 24.1979C22.6914 24.2529 22.6775 24.2896 22.6718 24.3082C22.6667 24.325 22.6667 24.3322 22.6667 24.3337ZM49.3334 28.5447C48.6647 28.8866 47.9223 29.1875 47.1337 29.4503C44.2077 30.4257 40.2715 31.0003 36 31.0003C31.7286 31.0003 27.7924 30.4257 24.8664 29.4503C24.0778 29.1875 23.3354 28.8866 22.6667 28.5447V36.0003L22.667 36.0029C22.6673 36.0051 22.6682 36.0102 22.6708 36.0187C22.6757 36.0355 22.6886 36.0703 22.7203 36.1232C22.7866 36.2337 22.924 36.4039 23.1868 36.6153C23.7219 37.0459 24.6169 37.5202 25.9205 37.9547C28.5167 38.8201 32.1438 39.3337 36 39.3337C39.8563 39.3337 43.4834 38.8201 46.0796 37.9547C47.3832 37.5202 48.2782 37.0459 48.8133 36.6153C49.076 36.4039 49.2135 36.2337 49.2798 36.1232C49.3115 36.0703 49.3243 36.0355 49.3293 36.0187C49.3309 36.0134 49.3319 36.0094 49.3324 36.0067C49.3328 36.005 49.333 36.0037 49.3331 36.0029L49.3334 36.0008L49.3334 28.5447ZM52.6667 24.3337C52.6667 22.9137 51.8019 21.8263 50.8529 21.0784C49.8851 20.3157 48.588 19.7017 47.1337 19.217C44.2077 18.2417 40.2715 17.667 36 17.667C31.7286 17.667 27.7924 18.2417 24.8664 19.217C23.4121 19.7017 22.115 20.3157 21.1472 21.0784C20.1982 21.8263 19.3334 22.9137 19.3334 24.3337V47.667C19.3334 49.0424 20.154 50.1201 21.0969 50.8789C22.0553 51.65 23.357 52.2805 24.8664 52.7837C27.8962 53.7936 31.8998 54.3337 36 54.3337C40.1003 54.3337 44.1038 53.7936 47.1337 52.7837C48.6431 52.2805 49.9448 51.65 50.9031 50.8789C51.8461 50.1201 52.6667 49.0424 52.6667 47.667V24.3337ZM49.3334 40.2103C48.6716 40.5494 47.9317 40.851 47.1337 41.117C44.1038 42.127 40.1003 42.667 36 42.667C31.8998 42.667 27.8962 42.127 24.8664 41.117C24.0684 40.851 23.3285 40.5494 22.6667 40.2103V47.667L22.667 47.6696C22.6673 47.6717 22.6682 47.6769 22.6708 47.6854C22.6757 47.7022 22.6886 47.7369 22.7203 47.7898C22.7866 47.9004 22.924 48.0706 23.1868 48.282C23.7219 48.7126 24.6169 49.1869 25.9205 49.6214C28.5167 50.4868 32.1438 51.0003 36 51.0003C39.8563 51.0003 43.4834 50.4868 46.0796 49.6214C47.3832 49.1869 48.2782 48.7126 48.8133 48.282C49.076 48.0706 49.2135 47.9004 49.2798 47.7898C49.3115 47.7369 49.3243 47.7022 49.3293 47.6854C49.3319 47.6769 49.3328 47.6717 49.3331 47.6696L49.3334 47.6674L49.3334 40.2103Z" fill="#193AE6"/>
</svg>

<svg xmlns="http://www.w3.org/2000/svg" width="72" height="72" fill="none" viewBox="0 0 72 72"><circle cx="36" cy="36" r="36" fill="#333"/><path fill="#193ae6" fill-rule="evenodd" d="M22.667 24.334q-.001.003.005.025.005.028.053.11c.07.116.215.289.485.502.55.433 1.45.897 2.71 1.317 2.503.834 6.067 1.379 10.08 1.379s7.577-.545 10.08-1.379c1.26-.42 2.16-.884 2.71-1.317.27-.213.414-.386.485-.502a.5.5 0 0 0 .053-.11l.005-.025q.001-.001-.005-.026a.5.5 0 0 0-.053-.11c-.07-.115-.215-.289-.485-.502-.55-.433-1.45-.897-2.71-1.317C43.577 21.545 40.013 21 36 21s-7.577.545-10.08 1.38c-1.26.42-2.16.883-2.71 1.317-.27.212-.414.386-.485.5a.5.5 0 0 0-.053.111q-.006.024-.005.026m26.666 4.21c-.668.343-1.41.643-2.2.906C44.209 30.426 40.273 31 36 31s-8.208-.574-11.134-1.55a16 16 0 0 1-2.2-.905V36l.001.003.004.016a.5.5 0 0 0 .05.104c.066.11.203.28.466.492.535.43 1.43.905 2.733 1.34 2.597.865 6.224 1.379 10.08 1.379s7.483-.514 10.08-1.38c1.303-.434 2.198-.908 2.733-1.339.263-.211.4-.381.467-.492a.5.5 0 0 0 .053-.12v-7.458m3.334-4.21c0-1.42-.865-2.508-1.814-3.256-.968-.762-2.265-1.376-3.72-1.861-2.925-.975-6.861-1.55-11.133-1.55s-8.208.575-11.134 1.55c-1.454.485-2.751 1.099-3.719 1.861-.949.748-1.814 1.836-1.814 3.256v23.333c0 1.375.821 2.453 1.764 3.212.958.771 2.26 1.402 3.77 1.905 3.03 1.01 7.033 1.55 11.133 1.55s8.104-.54 11.134-1.55c1.51-.503 2.81-1.134 3.77-1.905.942-.759 1.763-1.837 1.763-3.212zM49.333 40.21a16 16 0 0 1-2.2.907c-3.03 1.01-7.033 1.55-11.133 1.55s-8.104-.54-11.134-1.55a16 16 0 0 1-2.2-.907v7.457l.001.003.004.015a.5.5 0 0 0 .05.105c.066.11.203.28.466.492.535.43 1.43.905 2.733 1.34C28.518 50.486 32.145 51 36 51s7.483-.513 10.08-1.379c1.303-.434 2.198-.908 2.733-1.339.263-.211.4-.382.467-.492a.5.5 0 0 0 .053-.12v-7.46" clip-rule="evenodd"/></svg>
